components/Common/Svg/svgs/browser.svg

<svg
  xmlns="http://www.w3.org/2000/svg"
  width="781"
  height="72"
  viewBox="0 0 781 72"
  fill="none"
>
  <rect width="781" height="72" fill="#E5E5E5"></rect>
  <rect
    width="1430"
    height="972"
    transform="translate(-325 -218)"
    fill="white"
  ></rect>
  <rect width="781" height="72" fill="white"></rect>
  <path
    d="M0 8C0 3.58172 3.58172 0 8 0H773C777.418 0 781 3.58172 781 8V72H0V8Z"
    fill="#202124"
  ></path>
  <rect
    y="24"
    width="781"
    height="48"
    fill="#35363A"
  ></rect>
  <circle cx="13" cy="12" r="5" fill="#ED655A"></circle>
  <circle cx="31" cy="12" r="5" fill="#E1C14C"></circle>
  <circle cx="49" cy="12" r="5" fill="#72BE47"></circle>
  <path
    d="M31.3332 47.9998C31.3332 47.3555 30.8108 46.8332 30.1665 46.8332H17.1348L22.8282 41.1398C23.2852 40.6828 23.2839 39.9415 22.8252 39.4861C22.3689 39.033 21.6321 39.0343 21.1773 39.489L12.6665 47.9998L21.177 56.5103C21.6314 56.9648 22.3682 56.9648 22.8227 56.5103C23.2769 56.0561 23.2772 55.3199 22.8234 54.8653L17.1348 49.1665H30.1665C30.8108 49.1665 31.3332 48.6442 31.3332 47.9998Z"
    fill="#F1F3F4"
  ></path>
  <path
    d="M74.8227 39.4894C74.3682 39.0349 73.6314 39.0349 73.177 39.4894C72.7228 39.9435 72.7225 40.6798 73.1762 41.1344L78.8648 46.8332H65.8332C65.1888 46.8332 64.6665 47.3555 64.6665 47.9998C64.6665 48.6442 65.1888 49.1665 65.8332 49.1665H78.8648L73.1762 54.8653C72.7225 55.3199 72.7228 56.0561 73.177 56.5103C73.6314 56.9648 74.3682 56.9648 74.8227 56.5103L83.3332 47.9998L74.8227 39.4894Z"
    fill="#86888A"
  ></path>
  <path
    d="M132.592 41.4082C130.9 39.7165 128.578 38.6665 126 38.6665C120.843 38.6665 116.678 42.8432 116.678 47.9998C116.678 53.1565 120.843 57.3332 126 57.3332C129.799 57.3332 133.047 55.0653 134.502 51.8107C134.825 51.0862 134.245 50.3332 133.451 50.3332C132.936 50.3332 132.486 50.6635 132.257 51.1245C131.112 53.4217 128.74 54.9998 126 54.9998C122.138 54.9998 119 51.8615 119 47.9998C119 44.1382 122.138 40.9998 126 40.9998C127.937 40.9998 129.663 41.8048 130.923 43.0765L127.167 46.8332H135.333V38.6665L132.592 41.4082Z"
    fill="#F1F3F4"
  ></path>
  <rect
    x="164"
    y="32"
    width="583"
    height="32"
    rx="16"
    fill="#202124"
  ></rect>
  <rect
    x="180"
    y="45.8335"
    width="9.90476"
    height="8.66667"
    rx="1.61905"
    fill="#F1F3F4"
  ></rect>
  <path
    fill-rule="evenodd"
    clip-rule="evenodd"
    d="M184.952 42.7381C183.933 42.7381 183.102 43.567 183.102 44.5952C183.102 44.6234 183.102 44.7072 183.101 44.82C183.099 44.9742 183.098 45.1827 183.097 45.3772C183.096 45.5533 183.095 45.7252 183.096 45.8592C183.096 45.9267 183.097 45.9799 183.098 46.0171C183.098 46.0199 183.098 46.0226 183.098 46.0251C183.124 46.1986 183.167 46.2486 183.168 46.2499L183.168 46.2499L183.168 46.2499C183.169 46.2506 183.191 46.2824 183.304 46.3227C183.431 46.368 183.627 46.4067 183.924 46.4287C184.219 46.4505 184.552 46.4524 184.952 46.4524C185.353 46.4524 185.686 46.4505 185.981 46.4287C186.278 46.4067 186.474 46.368 186.601 46.3227C186.716 46.282 186.737 46.2499 186.737 46.2498L186.737 46.2498C186.738 46.2485 186.781 46.1986 186.807 46.0252C186.807 46.0227 186.808 46.0201 186.808 46.0173C186.808 45.9801 186.809 45.927 186.809 45.8595C186.81 45.7255 186.81 45.5536 186.809 45.3775C186.808 45.1846 186.806 44.978 186.804 44.8241C186.803 44.7094 186.803 44.6239 186.803 44.5952C186.803 43.567 185.972 42.7381 184.952 42.7381ZM186.806 46.0522C186.806 46.0522 186.807 46.0514 186.807 46.05L186.806 46.0522ZM183.099 46.052C183.099 46.052 183.099 46.0513 183.099 46.0499L183.099 46.052ZM188.042 44.8053C188.042 44.6993 188.041 44.6224 188.041 44.5952C188.041 42.8858 186.658 41.5 184.952 41.5C183.247 41.5 181.864 42.8858 181.864 44.5952C181.864 44.6221 181.864 44.6978 181.863 44.8023C181.859 45.2067 181.852 46.0421 181.865 46.1429C182.054 47.6697 183.378 47.6905 184.952 47.6905C186.527 47.6905 187.851 47.6697 188.041 46.1429C188.053 46.0424 188.046 45.2109 188.042 44.8053Z"
    fill="#F1F3F4"
  ></path>
  <text
    fill="white"
    xml:space="preserve"
    font-family="Roboto"
    font-size="14"
    letter-spacing="0em"
  >
    <tspan x="202.905" y="52.7852">gmail.com</tspan>
  </text>
  <path
    d="M765 44.6663C765.917 44.6663 766.667 43.9163 766.667 42.9997C766.667 42.083 765.917 41.333 765 41.333C764.083 41.333 763.333 42.083 763.333 42.9997C763.333 43.9163 764.083 44.6663 765 44.6663ZM765 46.333C764.083 46.333 763.333 47.083 763.333 47.9997C763.333 48.9163 764.083 49.6663 765 49.6663C765.917 49.6663 766.667 48.9163 766.667 47.9997C766.667 47.083 765.917 46.333 765 46.333ZM765 51.333C764.083 51.333 763.333 52.083 763.333 52.9997C763.333 53.9163 764.083 54.6663 765 54.6663C765.917 54.6663 766.667 53.9163 766.667 52.9997C766.667 52.083 765.917 51.333 765 51.333Z"
    fill="#86888A"
  ></path>
</svg>

<svg xmlns="http://www.w3.org/2000/svg" width="781" height="72" viewBox="0 0 781 72" fill="none"><path fill="#E5E5E5" d="M0 0h781v72H0z"/><path fill="#fff" d="M-325-218h1430v972H-325z"/><path fill="#fff" d="M0 0h781v72H0z"/><path d="M0 8a8 8 0 0 1 8-8h765a8 8 0 0 1 8 8v64H0V8Z" fill="#202124"/><path fill="#35363A" d="M0 24h781v48H0z"/><circle cx="13" cy="12" r="5" fill="#ED655A"/><circle cx="31" cy="12" r="5" fill="#E1C14C"/><circle cx="49" cy="12" r="5" fill="#72BE47"/><path d="M31.333 48c0-.645-.522-1.167-1.166-1.167H17.134l5.693-5.693a1.167 1.167 0 1 0-1.65-1.651l-8.512 8.51 8.511 8.511a1.164 1.164 0 0 0 1.646-1.645l-5.688-5.699h13.031c.645 0 1.167-.522 1.167-1.166Z" fill="#F1F3F4"/><path d="M74.823 39.49a1.164 1.164 0 0 0-1.647 1.644l5.689 5.7H65.833a1.167 1.167 0 1 0 0 2.332h13.032l-5.689 5.7a1.164 1.164 0 0 0 1.647 1.644l8.51-8.51-8.51-8.51Z" fill="#86888A"/><path d="M132.592 41.408A9.286 9.286 0 0 0 126 38.666c-5.157 0-9.322 4.177-9.322 9.334s4.165 9.333 9.322 9.333c3.799 0 7.047-2.268 8.502-5.522.323-.725-.257-1.478-1.051-1.478-.515 0-.965.33-1.194.791A6.988 6.988 0 0 1 126 55c-3.862 0-7-3.139-7-7 0-3.862 3.138-7 7-7 1.937 0 3.663.805 4.923 2.077l-3.756 3.756h8.166v-8.166l-2.741 2.741Z" fill="#F1F3F4"/><rect x="164" y="32" width="583" height="32" rx="16" fill="#202124"/><rect x="180" y="45.834" width="9.905" height="8.667" rx="1.619" fill="#F1F3F4"/><path fill-rule="evenodd" clip-rule="evenodd" d="M184.952 42.738c-1.019 0-1.85.829-1.85 1.857l-.001.225-.004.557c-.001.176-.002.348-.001.482l.002.158v.008c.026.174.069.224.07.225.001 0 .023.032.136.073.127.045.323.084.62.106.295.021.628.023 1.028.023.401 0 .734-.002 1.029-.023.297-.022.493-.061.62-.106.115-.041.136-.073.136-.073.001-.002.044-.051.07-.225l.001-.008.001-.158a38.555 38.555 0 0 0-.005-1.035l-.001-.229a1.854 1.854 0 0 0-1.851-1.857Zm1.854 3.314.001-.002-.001.002Zm-3.707 0v-.002.002Zm4.943-1.247-.001-.21a3.092 3.092 0 0 0-3.089-3.095 3.092 3.092 0 0 0-3.088 3.095l-.001.207c-.004.405-.011 1.24.002 1.34.189 1.528 1.513 1.548 3.087 1.548 1.575 0 2.899-.02 3.089-1.547.012-.1.005-.932.001-1.338Z" fill="#F1F3F4"/><text fill="#fff" xml:space="preserve" font-family="Roboto" font-size="14" letter-spacing="0em">
    <tspan x="202.905" y="52.785">gmail.com</tspan>
  </text><path d="M765 44.666c.917 0 1.667-.75 1.667-1.666 0-.917-.75-1.667-1.667-1.667s-1.667.75-1.667 1.667c0 .916.75 1.666 1.667 1.666Zm0 1.667c-.917 0-1.667.75-1.667 1.667 0 .916.75 1.666 1.667 1.666s1.667-.75 1.667-1.666c0-.917-.75-1.667-1.667-1.667Zm0 5c-.917 0-1.667.75-1.667 1.667 0 .916.75 1.666 1.667 1.666s1.667-.75 1.667-1.666c0-.917-.75-1.667-1.667-1.667Z" fill="#86888A"/></svg>
